dataset/clamtk/icon.svg

<?xml version="1.0" encoding="UTF-8" standalone="no"?>
<svg
   width="128"
   height="128"
   version="1"
   id="svg22"
   xmlns:xlink="http://www.w3.org/1999/xlink"
   xmlns="http://www.w3.org/2000/svg"
   xmlns:svg="http://www.w3.org/2000/svg">
  <defs
     id="defs26">
    <linearGradient
       id="linearGradient4"
       gradientUnits="userSpaceOnUse"
       x1="0"
       y1="269.46301"
       x2="118.926"
       y2="269.46301"
       gradientTransform="matrix(1,0,0,0.98333333,-118,-175.03333)">
      <stop
         offset="0"
         stop-color="#e5a50a"
         id="stop1"
         style="stop-color:#9a1918;stop-opacity:1;" />
      <stop
         offset="0.414"
         stop-color="#fbdf9b"
         id="stop2"
         style="stop-color:#e55d5c;stop-opacity:1;" />
      <stop
         offset="0.81300002"
         stop-color="#e5a50a"
         id="stop3"
         style="stop-color:#9a1918;stop-opacity:1;" />
      <stop
         offset="1"
         stop-color="#f8ca5b"
         id="stop4"
         style="stop-color:#dd2827;stop-opacity:1;" />
    </linearGradient>
    <linearGradient
       xlink:href="#linearGradient4"
       id="linearGradient876"
       x1="14.212767"
       y1="61.914894"
       x2="113.78723"
       y2="61.914894"
       gradientUnits="userSpaceOnUse"
       gradientTransform="matrix(1.0157509,0,0,1.0157509,-1.0080585,3.1098862)" />
  </defs>
  <path
     style="fill:url(#linearGradient876);fill-opacity:1;stroke-width:2.10714"
     d="M 105.52674,6.9999965 A 42.142857,43.225928 0 0 1 91.918799,32.237246 C 83.9243,26.950425 74.341014,23.857139 63.999157,23.857139 c -10.346071,0 -19.941999,3.095392 -27.9365,8.387271 A 42.142857,43.225928 0 0 1 22.473694,7.2810893 42.142857,43.225928 0 0 0 21.8563,14.343389 42.142857,43.225928 0 0 0 28.820408,38.088782 C 19.335315,47.271709 13.428573,60.121067 13.428573,74.428567 13.428573,102.44514 35.98343,125 64.000001,125 c 28.01657,0 50.571429,-22.55486 50.571429,-50.571433 0,-14.303287 -5.90422,-27.148429 -15.382149,-36.331357 a 42.142857,43.225928 0 0 0 6.953579,-23.753821 42.142857,43.225928 0 0 0 -0.61528,-7.3429712 z"
     id="path2-3" />
  <path
     style="fill:#e03c3b;stroke-width:2.10714"
     d="M 105.52673,3 A 42.142856,43.225928 0 0 1 91.918799,28.237248 C 83.9243,22.950428 74.341014,19.857142 63.999157,19.857142 c -10.34607,0 -19.941999,3.095393 -27.936499,8.387271 A 42.142856,43.225928 0 0 1 22.473696,3.2810929 42.142856,43.225928 0 0 0 21.856301,10.343393 42.142856,43.225928 0 0 0 28.820409,34.088785 C 19.335316,43.271713 13.428574,56.12107 13.428574,70.42857 13.428574,98.445143 35.983431,121 64.000001,121 92.01657,121 114.57143,98.445143 114.57143,70.42857 c 0,-14.303286 -5.90422,-27.148429 -15.382149,-36.331356 a 42.142856,43.225928 0 0 0 6.953579,-23.753821 42.142856,43.225928 0 0 0 -0.61528,-7.3429715 z"
     id="path2" />
  <path
     style="fill:#ffffff;stroke-width:2.10714"
     d="M 59.784873,83.071005 C 54.795158,91.132933 43.745302,93.89329 35.106016,89.236504 26.466732,84.583933 23.506195,74.275791 28.493802,66.213863 Z"
     id="path10" />
  <path
     style="fill:#2c2c2c;stroke-width:2.10714"
     d="m 43.157408,74.115648 v 0.526786 c -0.909864,4.646461 0.882493,10.199413 5.502383,16.313921 0.05308,-0.01286 0.107569,-0.01959 0.160501,-0.03293 -2.255276,-4.304683 -1.886736,-9.103489 0.308654,-13.5936 l -5.971642,-3.213393 z"
     id="path12" />
  <path
     style="fill:#ffffff;stroke-width:2.10714"
     d="m 68.213444,83.071005 c 4.989713,8.061928 16.039571,10.822285 24.678856,6.165499 8.64055,-4.652571 11.60109,-14.960713 6.612637,-23.022641 z"
     id="path14" />
  <path
     style="fill:#2c2c2c;stroke-width:2.10714"
     d="m 84.840908,74.115648 v 0.526786 c 0.909863,4.646461 -0.882493,10.199413 -5.502382,16.313921 -0.05308,-0.01286 -0.107569,-0.01959 -0.1605,-0.03293 2.255273,-4.304683 1.886735,-9.103489 -0.308655,-13.5936 l 5.971643,-3.214236 z"
     id="path16" />
</svg>

<svg xmlns="http://www.w3.org/2000/svg" xmlns:xlink="http://www.w3.org/1999/xlink" width="128" height="128"><defs><linearGradient id="a" x1="0" x2="118.926" y1="269.463" y2="269.463" gradientTransform="matrix(1 0 0 .98333 -118 -175.033)" gradientUnits="userSpaceOnUse"><stop offset="0" stop-color="#e5a50a" style="stop-color:#9a1918;stop-opacity:1"/><stop offset=".414" stop-color="#fbdf9b" style="stop-color:#e55d5c;stop-opacity:1"/><stop offset=".813" stop-color="#e5a50a" style="stop-color:#9a1918;stop-opacity:1"/><stop offset="1" stop-color="#f8ca5b" style="stop-color:#dd2827;stop-opacity:1"/></linearGradient><linearGradient xlink:href="#a" id="b" x1="14.213" x2="113.787" y1="61.915" y2="61.915" gradientTransform="translate(-1.008 3.11)scale(1.01575)" gradientUnits="userSpaceOnUse"/></defs><path d="M105.527 7a42.143 43.226 0 0 1-13.608 25.237 50.4 50.4 0 0 0-27.92-8.38c-10.346 0-19.942 3.096-27.936 8.387a42.143 43.226 0 0 1-13.59-24.963 42.143 43.226 0 0 0-.617 7.062A42.143 43.226 0 0 0 28.82 38.09C19.335 47.272 13.43 60.12 13.43 74.429 13.429 102.445 35.983 125 64 125s50.571-22.555 50.571-50.571c0-14.304-5.904-27.149-15.382-36.332a42.143 43.226 0 0 0 6.954-23.754A42.143 43.226 0 0 0 105.528 7z" style="fill:url(#b);fill-opacity:1;stroke-width:2.10714"/><path d="M105.527 3a42.143 43.226 0 0 1-13.608 25.237 50.4 50.4 0 0 0-27.92-8.38c-10.346 0-19.942 3.096-27.936 8.387a42.143 43.226 0 0 1-13.59-24.963 42.143 43.226 0 0 0-.617 7.062A42.143 43.226 0 0 0 28.82 34.09C19.335 43.272 13.43 56.12 13.43 70.429 13.429 98.445 35.983 121 64 121s50.571-22.555 50.571-50.571c0-14.304-5.904-27.149-15.382-36.332a42.143 43.226 0 0 0 6.954-23.754A42.143 43.226 0 0 0 105.528 3z" style="fill:#e03c3b;stroke-width:2.10714"/><path d="M59.785 83.071c-4.99 8.062-16.04 10.822-24.679 6.166-8.64-4.653-11.6-14.961-6.612-23.023Z" style="fill:#fff;stroke-width:2.10714"/><path d="M43.157 74.116v.526c-.91 4.647.883 10.2 5.503 16.314.053-.013.107-.02.16-.033-2.255-4.304-1.886-9.103.309-13.593z" style="fill:#2c2c2c;stroke-width:2.10714"/><path d="M68.213 83.071c4.99 8.062 16.04 10.822 24.68 6.166 8.64-4.653 11.6-14.961 6.612-23.023z" style="fill:#fff;stroke-width:2.10714"/><path d="M84.84 74.116v.526c.91 4.647-.882 10.2-5.501 16.314-.054-.013-.108-.02-.161-.033 2.255-4.304 1.887-9.103-.309-13.593l5.972-3.214z" style="fill:#2c2c2c;stroke-width:2.10714"/></svg>
